!!!COM: Scarlatti, Domenico
!!!CDT: 1685-1757
!!!OTL: Sonata in C major, L.55, K.330
!!!SCT: K. 330
!!!SCT: L. 55
!!!OMD: Allegro ([quarter-dot]=104)
**kern	**kern	**dynam
*staff2	*staff1	*staff1/2
*Icemba	*Icemba	*
*I"L.55 (K.330)	*I"L.55 (K.330)	*
*>[A,A,B,B]	*>[A,A,B,B]	*>[A,A,B,B]
*>norep[A,B]	*>norep[A,B]	*>norep[A,B]
*>A	*>A	*>A
*clefF4	*clefG2	*
*k[]	*k[]	*
*C:	*C:	*
*M3/8	*M3/8	*
*MM156	*MM156	*
=1-	=1-	=1-
4.r	8cc'^L	f
.	8cc'	.
.	8g'J	.
=2	=2	=2
4.r	8cc'^L	.
.	8cc'	.
.	8ff'J	.
=3	=3	=3
4.r	8ee'^L	.
.	8ee'	.
.	8aa'J	.
=4	=4	=4
4.r	8gg'^L	.
.	8gg'	.
.	8ff'J	.
=5	=5	=5
4.r	(16eeLL	.
.	16dd	.
.	16cc	.
.	16b	.
.	16a	.
.	16gJJ	.
=6	=6	=6
4.r	8f'L)	.
.	8d'	.
.	8g'J	.
!!LO:LB:g=z
=7	=7	=7
8c'^L	8r	.
8c'	8g'L	.
8G'J	8g'J	.
=8	=8	=8
8c'^L	8g'L>	.
8c'	8cc'	.
8f'J	8cc'J	.
=9	=9	=9
8e'^L	8cc'L	.
8e'	8cc'	.
8a'J	8cc'J	.
=10	=10	=10
(16gLL	8dd'L	.
16f	.	.
16e	8ee'	.
16d	.	.
16c	8ff'J	.
16BJJ	.	.
=11	=11	=11
8c'L)	8ee'L	.
8c'	8ee' 8gg'	.
8c'J	8ee' 8gg'J	.
=12	=12	=12
8G^L	8ee'^ 8gg'^L	.
8G'	8dd' 8ff'	.
8G'J	8dd' 8ff'J	.
=13	=13	=13
8C'^L	8dd'^ 8ff'^L	.
8C'	8cc' 8ee'	.
8C'J	8cc' 8ee'J	.
!!LO:LB:g=z
=14	=14	=14
8G'^L	8cc'^ 8ee'^L	.
8G'	8g' 8dd'	.
8G'J	8g' 8dd'J	.
=15	=15	=15
8c'^L	8cc'^L	.
8c'	8ee' 8gg'	.
8c'J	8ee' 8gg'J	.
=16	=16	=16
8G'^L	8ee'^ 8gg'^L	.
8G'	8dd' 8ff'	.
8G'J	8dd 8ffJ	.
=17	=17	=17
8C'^L	8dd'^ 8ff'^L	.
8C'	8cc' 8ee'	.
8C'J	8cc' 8ee'J	.
=18	=18	=18
8G^L	8cc'^ 8ee'^L	.
8G'	8g' 8dd'	.
8G'J	8g 8ddJ	.
=19	=19	=19
8c'^L	8e'^ 8cc'^L	.
8c'	8ee'	.
8c'J	8ee'J	.
=20	=20	=20
8A'^L	8ee'^L	.
8A'	8cc' 8aa'	.
8A'J	8cc' 8aa'J	.
=21	=21	=21
8F#'^L	8cc'^ 8aa'^L	.
8F#'	8dd' 8aa'	.
8F#'J	8dd' 8aa'J	.
!!LO:LB:g=z
=22	=22	=22
(8DL	(16aaLL	.
.	16gg	.
8E	16ff#	.
.	16ee	.
8F#J	16dd	.
.	16ccJJ	.
=23	=23	=23
8G'L)	8b'L)	.
8G'	8gg' 8bb'	.
8G'J	8gg 8bbJ	.
=24	=24	=24
8d'^L	8gg'^ 8bb'^L	.
8d'	8dd' 8aa'	.
8d'J	8dd' 8aa'J	.
=25	=25	=25
8g'^L	8b'^ 8gg'^L	.
8G'	8gg' 8bb'	.
8G'J	8gg' 8bb'J	.
=26	=26	=26
8d'^L	8gg'^ 8bb'^L	.
8d'	8dd' 8aa'	.
8d'J	8dd' 8aa'J	.
=27	=27	=27
8g'^L	8b'^ 8gg'^L	.
8G'	8b' 8gg'	.
8GJ	8b' 8gg'J	.
=28	=28	=28
8A'^L	8cc#'^ 8gg'^L	.
8A'	8cc#' 8gg'	.
8A'J	8cc#' 8gg'J	.
!!LO:LB:g=z
=29	=29	=29
(8DL	(16ff#LL	.
.	16ee	.
8E	16dd	.
.	16cc	.
8F#J	16b	.
.	16aJJ	.
=30	=30	=30
8GL	16bbLL	.
.	16aa	.
8A	16gg	.
.	16ff#	.
8BJ	16ee	.
.	16ddJJ	.
=31	=31	=31
8c'L)	8ee'L)	.
(8d	(16ddL	.
.	16cc	.
8DJ	16b	.
.	16aJJ	.
=32	=32	=32
8G'L)	8b'L)	.
8B'	8gg'	.
8G'J	8dd'J	.
=33	=33	=33
8F#'L	8aa'	.
(8D	(4ccT	.
8F#J	.	.
.	32bqLLL	.
.	32ccqJJJ	.
=34	=34	=34
8G'L)	8b'L)	.
8B'	8gg'	.
8G'J	8dd'J	.
=35	=35	=35
8F#'L	8aa'	.
(8D	(4ccT	.
8F#J	.	.
.	32bqLLL	.
.	32ccqJJJ	.
!!LO:LB:g=z
=36	=36	=36
8G'L)	8b'L)	.
8A'	(16dddL	.
.	16bb	.
8BJ	16gg	.
.	16ddJJ	.
=37	=37	=37
8c'L	8ee'L)	.
(8d	(16ddL	.
.	16cc	.
8DJ	16b	.
.	16aJJ	.
=38	=38	=38
8G'L)	8b'L)	.
8A'	(16ggL	.
.	16dd	.
8B'J	16b	.
.	16gJJ	.
=39	=39	=39
8c'L	8ee'L)	.
8d'	(16ddL	.
.	16cc	.
8D'J	16b	.
.	16aJJ	.
=40	=40	=40
4.GG^	4.g^)	.
=41	=41	=41
8G'L	8b'L	p
8B'	8gg'	.
8G'J	8dd'J	.
=42	=42	=42
8F#'L	8aa'	.
(8D	(4ccT	.
8F#J	.	.
.	32bqLLL	.
.	32ccqJJJ	.
=43	=43	=43
8G'L)	8b'L)	.
8B'	8gg'	.
8G'J	8dd'J	.
!!LO:LB:g=z
=44	=44	=44
8F#'L	8aa'	.
(8D	(4ccT	.
8F#J	.	.
=45	=45	=45
8G'L)	8b'L)	<
8A'	(16dddL	.
.	16bb	.
8B'J	16gg	.
.	16ddJJ	.
=46	=46	=46
8c'L	8ee'L)	.
(8d	(16ddL	.
.	16cc	.
8DJ	16b	.
.	16aJJ	.
=47	=47	=47
8G'L)	8b'L)	.
8A'	(16ggL	.
.	16dd	.
8B'J	16b	.
.	16gJJ	.
=48	=48	=48
8c'L	8ee'L)	.
8d'	(16ddL	.
.	16cc	.
8D'J	16b	.
.	16aJJ	.
=49	=49	=49
4.GG^	4.g^)	f
=50:|!|:	=50:|!|:	=50:|!|:
*>B	*>B	*>B
8G'^L	4.g^	f >
8G'	.	.
8Fn'J	.	]]
!!LO:LB:g=z
=51	=51	=51
8E'L	8g'^L	p
8E'	8g'	.
8D'J	8f'J	<
=52	=52	=52
8c'^L	8e'L	.
8c'	8e'	.
8B'J	8g'J	.
=53	=53	=53
8A'L	8cc'^L	.
8A'	8cc'	.
8G'J	8b'J	.
*clefG2	*	*
=54	=54	=54
8f'^L	8a'L<	.
8f'	8a'	.
8e'J	8cc'J	.
=55	=55	=55
8d'L	8ff'^L	.
8d'	8ff'	.
8c'J	8ee'J	.
=56	=56	=56
8g'^L	8ddL	.
8g'	8b'	.
8f'J	8dd'J	.
=57	=57	=57
8e'L	8gg'^L	.
8e'	8gg'	.
8d'J	8ff'J	.
=58	=58	=58
8cc'^L	8ee'L	f
8cc'	8ee'	.
8b'J	8gg'J	.
!!LO:LB:g=z
=59	=59	=59
8a'L	8ccc'^L	.
8a'	8ccc'	.
8g'J	8bb'J	.
=60	=60	=60
8f'^L	(16aaLL	.
.	16gg	.
8f'	16ff	.
.	16ee	.
8f'J	16dd	.
.	16ccJJ	.
=61	=61	=61
8f'L	8bL)	.
(8e	(8.ccT	.
8cJ	.	.
.	32bLL	.
.	32ccJJJ	.
=62	=62	=62
8g'L)	8dd'L)	.
(8e	(8.ccT	.
8cJ	.	.
.	32bLL	.
.	32ccJJJ	.
=63	=63	=63
8g'L)	8dd'L)	.
(<8e	(8.ccT	.
8cJ	.	.
.	32bLL	.
.	32ccJJJ	.
*clefF4	*	*
=64	=64	=64
8G'L)	8dd'L)	.
8G''	(16ggL	.
.	16dd	.
8G'J	16bb	.
.	16ggJJ	.
=65	=65	=65
8B'L	8ddd')	.
(8G	(4ffT	.
8BJ	.	.
.	32eeqLLL	.
.	32ffqJJJ	.
!!LO:LB:g=z
=66	=66	=66
8c'L)	8ee'L)	.
8f'	8ccc'	.
8cJ	8gg'J	.
=67	=67	=67
8B'L	8ddd'	.
(8G	(4ffT	.
8BJ	.	.
.	32eeqLLL	.
.	32ffqJJJ	.
=68	=68	=68
8c'L)	8ee'L)	.
8e'	8ccc'	.
8c'J	8gg'J	.
=69	=69	=69
8B'L	8ddd'	.
(8G	(4ffT	.
8BJ	.	.
.	32eeqLLL	.
.	32ffqJJJ	.
=70	=70	=70
8C'L)	8ee'L)	.
8D'	(16cccL	.
.	16gg	.
8E'J	16ee	.
.	16ccJJ	.
=71	=71	=71
8F'L	8aa'L)	.
(8G	(16ggL	.
.	16ff	.
8GGJ)	16ee	.
.	16ddJJ	.
=72	=72	=72
8C'L<	8cc'L)	.
8E'	8g'	p
8C'J	8g'J	.
!!LO:LB:g=z
=73	=73	=73
!	!slur from nowhere	!
8GG'L	8dd'	.
(8BB	(4fT	.
8GGJ	.	.
.	32eqLLL	.
.	32fqJJJ	.
=74	=74	=74
8C'L)	8eL)	.
8E'	8cc'	.
8C'J	8g'J	.
=75	=75	=75
8GG'L	8dd'	.
(8BB	(4fT	.
8GGJ	.	.
.	32eqLLL	.
.	32fqJJJ	.
=76	=76	=76
8C'L)	8e'L)	.
8E'	8cc'	.
8C'J	8g'J	.
=77	=77	=77
8GG'L	8gg'	.
(<8BB	(<4fT	.
8GGJ	.	.
.	32eqLLL	.
.	32fqJJJ	.
=78	=78	=78
8C'L)	8e'L)	<
8D'	(16ggL	.
.	16ee	.
8E'J	16cc	.
.	16gJJ	.
=79	=79	=79
8F'L	8aL)	.
8d	(16ffL	.
.	16dd	.
8F'J	16a	.
.	16fJJ	.
!!LO:LB:g=z
=80	=80	=80
8E'L	8g'L<)	.
8c'	(16eeL	.
.	16cc	.
8E'J	16g	.
.	16eJJ	.
=81	=81	=81
8D'L	8f'L)	.
8B'	(<16ddL	.
.	16b	.
8D'J	16f	.
.	16dJJ	.
=82	=82	=82
8C'L	8e'L)	f
8D'	(16cccL	.
.	16gg	.
8E'J	16ee	.
.	16ccJJ	.
=83	=83	=83
8F'L	8aa'L)	.
8G'	(16ggL	.
.	16ff	.
8GG'J	16ee	.
.	16ddJJ	.
=84	=84	=84
8C'L	8ee'L)	.
8D	(16ggL	.
.	16ee	.
8E'J	16cc	.
.	16gJJ	.
=85	=85	=85
8F'L	8ff'L)	.
8G'	(16eeL	.
.	16dd	.
8GG'J	16cc	.
.	16bJJ	.
=86	=86	=86
4.C^	4.cc^)	.
==:|!	==:|!	==:|!
*-	*-	*-
!!!RDF**kern: > = above
!!!RDF**kern: < = below
!!!verovio: beamFrenchStyle 1
!!!URL-vhv: https://verovio.humdrum.org/?file=scarlatti/sonatas/L055K330.krn
!!!URL-pdf: https://github.com/craigsapp/scarlatti-keyboard-sonatas/blob/master/reference-edition/L055K330.pdf (reference ed.) Alessandro Longo (1864-1945) Milan: G. Ricordi & C.
!!!URL-pdf: https://imslp.eu/files/imglnks/euimg/6/62/IMSLP345939-PMLP506809-Scarlatti,_Domenico-Sonates_Heugel_32.485_Volume_7.pdf#page=100 (urtext) Kenneth Gilbert (1931-2020), Le Pupitre, Vol.37, Paris: Heugel, 1975. Plate H. 32,485.
!!!URL-youtube: https://www.youtube.com/watch?v=E1ZSgb6pvl4 Gerda Struhal, piano
!!!URL-youtube: https://www.youtube.com/watch?v=O_3Ww6t65lQ Camila Pinto Pereira, harpsichord
!!!PTL: Domenico Scarlatti: Opere complete per clavicembalo
!!!PED: Longo, Alessandro
!!!PPR: Ricordi
!!!PPP: Milan
!!!PDT: 1906-1913
!!!YEC: 2021 Craig Stuart Sapp
!!!YEM: Licence: (CC BY-NC-SA 4.0) https://creativecommons.org/licenses/by-nc-sa/4.0
!!!ENC: Craig Stuart Sapp
!!!END: 2005/06/20
!!!EED: Craig Stuart Sapp
!!!EEV: 2021/06/13
